X: 1893
T: Unutulmuş Değilsin
C: İrfan Özbakır
O: Turkey
F: http://compmusic.upf.edu/node/140
N: hicaz--sarki--curcuna--unutulmus_degilsin--irfan_ozbakir
N: makam= hicaz
N: form= sarki
N: usul= curcuna = 10/8
M: 10/8
L: 1/16
K: C _7/8B ^f ^c 
Q: 1/4=132
%%MIDI tuningsystem comma53
z4 G2A4A4a6  | z4 g2=f2 e2d2 cBc6  | \
w:  U nu tul muş   |  de ğil *  sin   | 
z4 d2e4=f4e2 d2c2  | d3c B2B2 A2A2 G2A6  | 
w:  a dın  sak lı   |  kal *  *  bim *  de   | 
z4 f2g4g4=f2 e2d2  | a3g =f2f2 e2d2 c2d6  | \
w:  a dın  sak lı   |  kal *  *  bim *  de    | 
e2g2 =f2e2 d2c2 BAA6  | 
w:  SAZ  | 
z4 G2A4A4a6  | z4 g2=f2 e2d2 cBc6  | \
w:  U nu tul muş   |  de ğil *  sin   | 
z4 d2e4=f4e2 d2c2  | d3c B2B2 A2A2 G2A6  | 
w:  a dın  sak lı   |  kal *  *  bim *  de   | 
z4 f2g4g4=f2 e2d2  | a3g =f2f2 e2d2 c2d6  | \
w:  a dın  sak lı   |  kal *  *  bim *  de    | 
e2g2 =f2e2 d2fe dcd6  | 
w:  SAZ  | 
z4 f2g4g2 f2ag =fed2  | z4 e2=f2 e2d2 cBc6  | \
w:  Se ni  bir  *  ben   |  se ve *  rim   | 
d6d2 c2d2 c2g6  | 
w:  has re *  tin  *  var   | 
e2d2 d2d2 e=fed cBc6  | d6A4B2 c2d6  | \
w:  i çim *  *  *  *  de   |  has re tin  *  var   | 
dcB2 B4 BAA8-A2  | 
w:  i *  çim *  *  *  de    | 
e2g2 =f2e2 d2fe dcd6  | z4 f2g4g2 f2ag =fed2  | \
w:  SAZ  |  Se ni  bir  *  ben   | 
z4 e2=f2 e2d2 cBc6  | 
w:  se ve *  rim   | 
d6d2 c2d2 c2g6  | e2d2 d2d2 e=fed cBc6  | \
w:  has re *  tin  *  var   |  i çim *  *  *  *  de   | 
d6A4B2 c2d6  | 
w:  has re tin  *  var   | 
dcB2 B4 BAA8-A2  | e2g2 =f2e2 d2^f2 g2a6  | \
w:  i *  çim *  *  *  de    |  SAZ  | 
z4 g2a4a4a8-a2 a2=b2 a2g2 f^ef6  | 
w:  Sü rük le nip  gi de *  rim   | 
g6g4g2 f2g4f2  | a2a2 a4 =b2ag f^ef6  | \
w:  her  gün  se *  nin   |  pe şin *  *  de   | 
g6g4g2 f2ag =fed2  | 
w:  her  gün  se *  nin   | 
a2g2 =f2e2 g2fe dcd6  | e2g2 =f2e2 d2^f2 g2a6  | \
w:  pe şin *  *  *  de    |  SAZ  | 
z4 g2a4a4a8-a2 a2=b2 a2g2 f^ef6  | 
w:  Sü rük le nip  gi de *  rim   | 
g6g4g2 f2g4f2  | a2a2 a4 =b2ag f^ef6  | \
w:  her  gün  se *  nin   |  pe şin *  *  de   | 
g6g4g2 f2ag =fed2  | 
w:  her  gün  se *  nin   | 
a2g2 =f2e2 g2fe dcd6  | e2g2 =f2e2 d2fe dcd6  | \
w:  pe şin *  *  *  de    |  SAZ  | 
z4 f2g4g2 f2ag =fed2  | 
w:  Se ni  bir  *  ben   | 
z4 e2=f2 e2d2 cBc6  | d6d2 c2d2 c2g6  | \
w:  se ve *  rim   |  has re *  tin  *  var   | 
e2d2 d2d2 e=fed cBc6  | 
w:  i çim *  *  *  *  de   | 
d6A4B2 c2d6  | dcB2 B4 BAA8-A2  | |


